Hatter-kde/actions/22/stateshape.svg

<?xml version="1.0" encoding="UTF-8"?>
<svg viewBox="0 0 22 22" xmlns="http://www.w3.org/2000/svg">
 <defs id="defs3051">
  <style id="current-color-scheme" type="text/css">.ColorScheme-Text {
        color:#363636;
      }</style>
 </defs>
 <path class="ColorScheme-Text" d="m5 3c-1.108 0-2 0.892-2 2v12c0 1.108 0.892 2 2 2h12c1.108 0 2-0.892 2-2v-12c0-1.108-0.892-2-2-2h-12zm0 1h12c0.554 0 1 0.446 1 1v12c0 0.554-0.446 1-1 1h-12c-0.554 0-1-0.446-1-1v-12c0-0.554 0.446-1 1-1zm1 1c-0.554 0-1 0.446-1 1v10c0 0.554 0.446 1 1 1h10c0.554 0 1-0.446 1-1v-10c0-0.554-0.446-1-1-1h-10z" fill="currentColor"/>
</svg>

<svg xmlns="http://www.w3.org/2000/svg" viewBox="0 0 22 22">
  <defs id="defs3051">
    <style type="text/css" id="current-color-scheme">
      .ColorScheme-Text {
        color:#363636;
      }
      </style>
  </defs>
 <path 
     style="fill:currentColor;fill-opacity:1;stroke:none" 
     d="M 5 3 C 3.892 3 3 3.8919999 3 5 L 3 17 C 3 18.108 3.892 19 5 19 L 17 19 C 18.108 19 19 18.108 19 17 L 19 5 C 19 3.8919999 18.108 3 17 3 L 5 3 z M 5 4 L 17 4 C 17.554 4 18 4.4459999 18 5 L 18 17 C 18 17.554 17.554 18 17 18 L 5 18 C 4.446 18 4 17.554 4 17 L 4 5 C 4 4.4459999 4.446 4 5 4 z M 6 5 C 5.446 5 5 5.446 5 6 L 5 16 C 5 16.554 5.446 17 6 17 L 16 17 C 16.554 17 17 16.554 17 16 L 17 6 C 17 5.446 16.554 5 16 5 L 6 5 z "
	 class="ColorScheme-Text"
     />
</svg>
